svgs/sharp-light/sensor-on.svg

<svg xmlns="http://www.w3.org/2000/svg" viewBox="0 0 640 512"><!--! Font Awesome Pro 6.6.0 by @fontawesome - https://fontawesome.com License - https://fontawesome.com/license (Commercial License) Copyright 2024 Fonticons, Inc. --><path d="M416 64l0 384L32 448 32 64l384 0zM32 32L0 32 0 64 0 448l0 32 32 0 384 0 32 0 0-32 0-384 0-32-32 0L32 32zm96 96l-32 0 0 16 0 128 0 16 32 0 0-16 0-128 0-16zm64 0l-32 0 0 16 0 128 0 16 32 0 0-16 0-128 0-16zM600.2 93.7L614 85.5 597.5 58l-13.7 8.2-80 48L490 122.5 506.5 150l13.7-8.2 80-48zM528 240l-16 0 0 32 16 0 96 0 16 0 0-32-16 0-96 0zm-7.8 130.3L506.5 362 490 389.5l13.7 8.2 80 48 13.7 8.2L614 426.5l-13.7-8.2-80-48z"/></svg>

<svg xmlns="http://www.w3.org/2000/svg" viewBox="0 0 640 512"><!--! Font Awesome Pro 6.5.2 by @fontawesome - https://fontawesome.com License - https://fontawesome.com/license (Commercial License) Copyright 2024 Fonticons, Inc. --><path d="M416 64V448H32V64H416zM32 32H0V64 448v32H32 416h32V448 64 32H416 32zm96 96H96v16V272v16h32V272 144 128zm64 0H160v16V272v16h32V272 144 128zM600.2 93.7L614 85.5 597.5 58l-13.7 8.2-80 48L490 122.5 506.5 150l13.7-8.2 80-48zM528 240H512v32h16 96 16V240H624 528zm-7.8 130.3L506.5 362 490 389.5l13.7 8.2 80 48 13.7 8.2L614 426.5l-13.7-8.2-80-48z"/></svg>
